X:442
T:Bill The Weaver
T:An Seancha\'i Muimhneach
T:Johnny O'Leary's
R:jig
H:Also played with only first two parts
Z:hn-jig-442
M:6/8
L:1/8
K:Edor
~B3 EFA | B2A Bcd | ~B3 EFG | A2G FED |
~B3 EFA | B2A Bcd | ABA DFG | A2G FED :|
|: g2e fed | efd BAF | ~B3 EFG | A2G FED |
g2e fed | edc d2B | ABA DFG | A2G FED :| 
|: ~E3 EFD | EFD E2D | ~E3 EFG | A2G FED |
~E3 EFD | EFD EFG | ABA DFG | A2G FED :|
P:variations
|: BdB EFA | B2A Bcd | B2E EFG | A2G FED |
BAB EFA | B2A Bcd | ~A3 DFA | A2G FED :|
|: E2g fed | e2d BAF | BAB EFG | A2G FED |
E2g fed | edc d2B | ~A3 DFA | A2G FED :| 
|: ~E3 EFD | EFD E2D | ~E3 EFG | A2G FED |
~E3 EFD | EFD EFG | ~A3 DFA | A2G FED :|

